_in_process/WorldPrint/app/images/elems/Union.svg

<svg width="24" height="19" fill="none" xmlns="http://www.w3.org/2000/svg"><path fill-rule="evenodd" clip-rule="evenodd" d="M0 0h24v3H0V0zm0 8h24v3H0V8zm24 8H0v3h24v-3z" fill="url(#paint0_linear)"/><defs><linearGradient id="paint0_linear" x1="19.008" y1="1.75" x2="12.168" y2="20.172" gradientUnits="userSpaceOnUse"><stop stop-color="#3CDBC0"/><stop offset=".38" stop-color="#00A3E0"/><stop offset=".854" stop-color="#4D3B8F"/><stop offset="1" stop-color="#582C83"/></linearGradient></defs></svg>

<svg width="24" height="19" viewBox="0 0 24 19" fill="none" xmlns="http://www.w3.org/2000/svg">
<path fill-rule="evenodd" clip-rule="evenodd" d="M0 0H24V3H0V0ZM0 8H24V11H0V8ZM24 16H0V19H24V16Z" fill="url(#paint0_linear)"/>
<defs>
<linearGradient id="paint0_linear" x1="19.0078" y1="1.74975" x2="12.1681" y2="20.1724" gradientUnits="userSpaceOnUse">
<stop stop-color="#3CDBC0"/>
<stop offset="0.380208" stop-color="#00A3E0"/>
<stop offset="0.854167" stop-color="#4D3B8F"/>
<stop offset="1" stop-color="#582C83"/>
</linearGradient>
</defs>
</svg>
